X: 04075
T: The PRESSROOM REEL
C: Bob McQuillen 3 July 79
B: Bob's Note Book 04 #75
R: reel
Z: 2020 John Chambers <jc:trillian.mit.edu>
M: C
L: 1/8
K: E
GA \
| Begf ed GA | BGAB GEGA | Bdeg dB GA | BedB A2GA |
| Bdeg egdB  | AGBA GEgf | edBG AGBA  | GEED E2  :|
|: gf \
| edBG A2GA | BEED E2gf | e2dc BAGB | AGAB A2gf |
| e2dc BAGB | ABAG FDGA | Beef gaba | geed e2  :|
%%begintext align
%% My friend, Jay Smith, over in Portsmouth, N.H.
%% has a pub on Daniels St. called the Pressroom.
%% It's a great place, full of old typewriters, friends,
%% and lots of good music. Hope to see you there!
%%endtext

%%sep 1 1 500

%%sep 1 1 500

